logos/gridsome.svg

<?xml version="1.0" encoding="UTF-8"?>
<svg width="512px" height="102px" viewBox="0 0 512 102" version="1.1" xmlns="http://www.w3.org/2000/svg" xmlns:xlink="http://www.w3.org/1999/xlink" preserveAspectRatio="xMidYMid">
    <defs>
        <linearGradient x1="20.9379706%" y1="135.775348%" x2="67.3305702%" y2="141.765059%" id="linearGradient-1">
            <stop stop-color="#1A7D75" offset="0%"></stop>
            <stop stop-color="#1A8864" offset="100%"></stop>
        </linearGradient>
        <linearGradient x1="5.87891947%" y1="11.1173081%" x2="-17.3060707%" y2="72.2714937%" id="linearGradient-2">
            <stop stop-color="#168A81" offset="1.29262%"></stop>
            <stop stop-color="#31A97F" offset="100%"></stop>
        </linearGradient>
        <linearGradient x1="-144.300883%" y1="53.4330921%" x2="-70.3570682%" y2="117.633897%" id="linearGradient-3">
            <stop stop-color="#27A59B" offset="0%"></stop>
            <stop stop-color="#64D8A2" offset="100%"></stop>
        </linearGradient>
        <linearGradient x1="-143.418979%" y1="60.4705186%" x2="-4.6930745%" y2="180.917352%" id="linearGradient-4">
            <stop stop-color="#27A59B" offset="0%"></stop>
            <stop stop-color="#64D8A2" offset="100%"></stop>
        </linearGradient>
        <linearGradient x1="208.845261%" y1="-141.921386%" x2="86.1110263%" y2="-183.711114%" id="linearGradient-5">
            <stop stop-color="#27A59B" offset="0%"></stop>
            <stop stop-color="#64D8A2" offset="100%"></stop>
        </linearGradient>
    </defs>
    <g fill-rule="evenodd">
				<g>
						<path d="M91.8790471,41.9929468 C96.7662821,41.7581072 101.092973,45.5495627 101.514937,50.4417766 C103.343034,74.1066323 82.0751185,100.572551 51.5546906,101.420214 C46.6633065,101.556305 42.5884669,97.6901656 42.4527911,92.7855043 C42.3175301,87.8804281 46.1724669,83.794386 51.063851,83.6582952 C71.311501,83.096091 84.1384702,65.6071834 83.4538672,51.2927588 C83.2194426,46.3918317 86.9913972,42.2282012 91.8790471,41.9929468 Z" fill="url(#linearGradient-1)"></path>
						<path d="M8.95467242,41.489245 C13.8477992,41.489245 17.8144715,45.4669954 17.8144715,50.3737312 C17.8144715,70.8533163 34.2813706,84.1072288 50.7286031,83.701446 C55.6204021,83.5807069 59.6832092,87.4592936 59.8035334,92.3643698 C59.9242724,97.2698609 56.0560585,101.344286 51.1646744,101.465025 C25.4445992,102.099423 0.00694179545,81.5082272 0.00694179545,50.3737312 C0.00694179545,45.4669954 4.06154568,41.489245 8.95467242,41.489245 Z" fill="url(#linearGradient-2)"></path>
						<path d="M69.7460423,51.0624832 C69.7460423,46.0391575 73.8437019,41.9668074 78.898146,41.9668074 L92.2358705,41.9668074 C97.2907295,41.9668074 101.514937,46.0391575 101.514937,51.0624832 C101.514937,56.0862239 97.2907295,60.158574 92.2358705,60.158574 L78.898146,60.158574 C73.8437019,60.158574 69.7460423,56.0862239 69.7460423,51.0624832 Z" fill="url(#linearGradient-3)" fill-rule="nonzero"></path>
						<path d="M41.7603048,51.0757604 C41.7603048,46.0449662 45.8318251,41.9668074 50.8485123,41.9668074 C55.8656144,41.9668074 59.9371347,46.0449662 59.9371347,51.0757604 C59.9371347,56.1065546 55.8656144,60.1851283 50.8485123,60.1851283 C45.8318251,60.1851283 41.7603048,56.1065546 41.7603048,51.0757604 Z" fill="url(#linearGradient-4)" fill-rule="nonzero"></path>
						<path d="M59.6852838,8.51590561 C59.8885901,13.4184093 56.0896663,17.5576845 51.2007716,17.7612813 C30.0961233,18.640187 17.2119379,35.2277007 17.8390757,50.9778414 C18.0342912,55.8804281 14.3083917,60.0137701 9.41916513,60.209608 C4.52993855,60.405446 0.230366273,56.4484411 0.0351457345,51.5458544 C-0.986840703,25.8793857 20.3842633,0.506097114 50.4655496,0.00779581051 C55.3544442,-0.195802193 59.4823924,3.61340603 59.6852838,8.51590561 Z" fill="url(#linearGradient-5)"></path>
				</g>
				<path d="M169.685621,46.5051024 L193.513952,46.5051024 L193.564156,47.2071315 C193.663734,48.6082855 193.663734,50.3948917 193.663734,50.9853098 L193.663734,50.9911186 C193.663734,59.8739452 191.665524,66.1312158 186.756713,72.3685708 L186.755054,72.3702304 L186.753809,72.372305 C180.357543,80.401245 171.734451,84.6345805 161.623903,84.6345805 C142.596921,84.6345805 128.70446,70.0255691 128.70446,50.1073584 C128.70446,29.9011581 142.493193,15.2860891 161.623903,15.2860891 C171.730302,15.2860891 180.452973,19.5159393 186.754639,27.451068 L187.218509,28.0354285 L179.919397,33.9691516 L179.438101,33.4299335 C176.899261,30.5860515 175.780246,29.4718913 174.106911,28.351549 L174.093634,28.3426285 L174.080772,28.333127 C170.59884,25.7816742 166.162613,24.3562479 161.623903,24.3562479 C148.624746,24.3562479 138.624564,35.3282336 138.624564,50.0094395 C138.624564,64.4985416 148.62848,75.5642142 161.42848,75.5642142 C168.425122,75.5642142 175.715105,71.8482725 179.575851,66.2693811 L179.582905,66.2594233 L179.589958,66.2498803 C181.897277,63.1305805 182.872733,60.1867879 183.544473,55.0842142 L169.685621,55.0842142 L169.685621,46.5051024 Z M201.961952,36.6877721 L210.90494,36.6877721 L210.90494,41.8091413 C211.727293,40.402552 212.585744,39.4564307 213.786911,38.5181928 C216.18883,36.6305558 219.489446,35.6078836 222.857277,35.6078836 L225.373297,35.6078836 L225.373297,44.7790732 L224.522315,44.6720262 C223.793316,44.5807458 223.055605,44.579916 222.563935,44.579916 C218.807332,44.579916 215.523313,46.3200521 213.415566,49.4493098 L213.413491,49.4522142 L213.411832,49.4547037 C211.573776,52.1312936 210.90494,54.6124605 210.90494,59.7283114 L210.90494,83.4562336 L201.961952,83.4562336 L201.961952,36.6877721 Z M241.263968,36.6877721 L241.263968,83.4562336 L232.320979,83.4562336 L232.320979,36.6877721 L241.263968,36.6877721 Z M285.897588,42.2755011 C281.661349,37.6986194 276.740091,35.6078836 270.523482,35.6078836 C257.799825,35.6078836 248.553122,46.2474427 248.553122,60.3174849 C248.553122,74.4045383 257.619754,84.5362466 270.523482,84.5362466 C274.048564,84.5362466 277.086956,83.8520586 279.833251,82.3442725 C282.033939,81.1360521 284.015138,79.4162466 285.897588,77.1529079 L285.897588,83.4562336 L294.840162,83.4562336 L294.840162,16.4641455 L285.897588,16.4641455 L285.897588,42.2755011 Z M335.919242,50.5683244 L326.940986,50.5683244 L326.940986,49.3219322 C326.940986,47.4357474 326.186263,45.9379192 324.868921,44.8948333 C323.533738,43.8376405 321.564156,43.2053163 319.094606,43.2053163 C316.723391,43.2053163 314.877867,43.8127458 313.642263,44.8056275 C312.42284,45.785232 311.736992,47.1847264 311.736992,48.9294265 C311.736992,49.8526032 311.852752,50.5695691 312.108752,51.1687004 C312.360188,51.757044 312.768046,52.2798317 313.430243,52.7827037 C314.801524,53.823715 317.179793,54.7257312 321.250483,55.8584379 C327.050937,57.4384184 330.240772,58.953258 332.535229,61.257258 C334.925115,63.6571024 336.372739,67.0884152 336.372739,70.6255302 C336.372739,74.7767134 334.659572,78.2802207 331.672629,80.7319289 C328.698548,83.1736794 324.507948,84.5362466 319.583371,84.5362466 C314.340558,84.5362466 310.13834,83.3081105 307.136046,80.815326 C304.122548,78.3125837 302.418509,74.6198771 302.014801,69.9048301 L301.944681,69.0849662 L310.788091,69.0849662 L310.853647,69.7683244 C311.083507,72.1669241 311.966438,73.9282207 313.381699,75.0999289 C314.806917,76.2799354 316.86446,76.9388139 319.583371,76.9388139 C322.000642,76.9388139 323.922094,76.3081494 325.22201,75.2746064 C326.506159,74.2535108 327.234328,72.8033973 327.234328,71.0184508 C327.234328,70.1185092 327.088694,69.3741591 326.787469,68.7306323 C326.487488,68.0895951 326.013245,67.5058155 325.293789,66.954399 C323.825005,65.8283309 321.391553,64.8761105 317.539105,63.8965059 L317.533297,63.8952612 L317.527488,63.8936016 C312.587974,62.5542693 308.903151,60.8178674 306.448953,58.4698868 C303.963637,56.0924476 302.794003,53.139527 302.794003,49.5185999 C302.794003,45.3715659 304.479371,41.8684735 307.428973,39.4152716 C310.366956,36.9716956 314.509841,35.6078836 319.387948,35.6078836 C324.301323,35.6078836 328.332182,36.8670965 331.195067,39.311046 C334.069154,41.7643309 335.679423,45.3371283 335.882729,49.7783341 L335.919242,50.5683244 Z M396.359306,36.6877721 L405.302295,36.6877721 L405.302295,41.3899568 C406.664447,39.6872871 408.126593,38.377704 409.765906,37.4383873 C411.981115,36.1691335 414.463527,35.6078836 417.354211,35.6078836 C420.540726,35.6078836 423.216901,36.2946025 425.378587,37.7636359 C427.1793,38.9880794 428.5734,40.7222823 429.606529,42.9476567 C431.129251,40.6221228 432.863579,38.8697053 434.946431,37.6610285 C437.402704,36.2388385 440.282185,35.6078836 443.746691,35.6078836 C449.086593,35.6078836 453.260597,37.3334148 455.791553,40.71888 C456.924259,42.2190732 457.658652,43.6671121 458.098457,45.6748657 C458.534114,47.6502563 458.679332,50.1496794 458.679332,53.739903 L458.679332,83.4562336 L449.738003,83.4562336 L449.738003,55.5070084 C449.738003,52.7507555 449.688214,51.1118576 449.513952,49.9355853 C449.343838,48.8032936 449.065848,48.107903 448.567955,47.246963 C447.368862,45.1844411 444.730029,43.7944897 441.402444,43.7944897 C438.311358,43.7944897 436.000305,44.8284476 434.448538,46.7316437 C432.876026,48.6589046 431.992266,51.5811218 431.992266,55.5070084 L431.992266,83.4562336 L423.046788,83.4562336 L423.046788,55.6053422 C423.046788,51.2155853 422.652623,49.118211 421.673433,47.3282855 L421.669284,47.3154233 L421.660986,47.3021461 C420.553174,45.0761494 418.130094,43.7944897 415.005815,43.7944897 C411.927177,43.7944897 409.536875,44.8935886 407.901712,46.8594362 C406.251611,48.84354 405.302295,51.794386 405.302295,55.6053422 L405.302295,83.4562336 L396.359306,83.4562336 L396.359306,36.6877721 Z M511.808668,63.2326486 L474.42105,63.2326486 C474.603611,64.705997 474.848409,65.8515659 475.205232,66.8639484 C475.624292,68.0505935 476.217614,69.0870408 477.113822,70.268292 L477.117971,70.2736858 L477.12212,70.2794946 C479.910321,74.1087069 483.984746,76.1533876 488.631747,76.1533876 C493.938457,76.1533876 498.958879,73.2502563 501.460791,68.7841558 L501.780272,68.2178025 L509.717517,71.1927134 L509.352396,71.9399678 C505.502023,79.7718252 497.506691,84.5362466 488.631747,84.5362466 C474.802768,84.5362466 464.898846,74.3618025 464.898846,60.219151 C464.898846,45.8976729 474.686593,35.6078836 488.337161,35.6078836 C501.867404,35.6078836 511.970483,45.8719484 511.970483,59.5320586 L511.970483,59.5407717 C511.970483,60.1295302 511.970483,61.4319354 511.870905,62.5451413 L511.808668,63.2326486 Z M231.343449,24.6807497 C231.343449,21.5187555 233.731261,19.114845 236.890392,19.114845 C239.981478,19.114845 242.339417,21.6476268 242.339417,24.7789176 C242.339417,27.8629915 239.833355,30.2466129 236.792473,30.2466129 C233.720888,30.2466129 231.343449,27.8324126 231.343449,24.6807497 Z M282.020246,48.2892191 C279.599242,45.4412709 276.169588,43.7944897 272.087695,43.7944897 C267.854775,43.7944897 264.327203,45.4694849 261.846866,48.3539452 C259.35906,51.2475335 257.886956,55.406185 257.886956,60.4158187 C257.886956,65.2250505 259.332506,69.262963 261.750191,72.0860165 C264.160823,74.9003568 267.568071,76.5458933 271.59893,76.5458933 C279.792175,76.5458933 285.897588,69.7148009 285.897588,60.219151 C285.897588,55.2576469 284.449135,51.1467101 282.020246,48.2892191 Z M349.159877,42.401634 C353.372882,38.0813332 359.343034,35.6078836 366.369964,35.6078836 C380.116376,35.6078836 389.904538,45.8955983 389.904538,60.219151 C389.904538,73.875527 379.413102,84.5362466 366.076623,84.5362466 C359.187443,84.5362466 353.290729,82.0073649 349.118386,77.6516307 C344.948117,73.298386 342.542049,67.1647588 342.542049,60.0228982 C342.542049,52.832493 344.948117,46.7204411 349.159877,42.401634 Z M376.79211,48.3900424 C374.293932,45.6043309 370.716571,43.9907426 366.369964,43.9907426 C361.92046,43.9907426 358.268415,45.6080651 355.723352,48.3954362 C353.172065,51.1890311 351.68046,55.2169857 351.68046,60.121232 C351.68046,64.9744443 353.171235,68.978749 355.710905,71.7611413 C358.24518,74.5373098 361.873576,76.1533876 366.272046,76.1533876 C374.683533,76.1533876 380.766127,69.5915724 380.766127,60.121232 C380.766127,55.2140813 379.296927,51.1836372 376.79211,48.3900424 Z M474.566269,56.2243892 L502.460726,56.2243892 C502.145394,53.3146194 501.485686,51.6134849 500.137225,49.6638187 C497.444454,46.0341785 493.079592,43.7944897 488.337161,43.7944897 C483.594729,43.7944897 479.341893,46.0312742 476.848279,49.7351834 C475.669932,51.5964735 475.097355,53.2220943 474.566269,56.2243892 Z M236.890392,19.8702732 C234.152811,19.8702732 232.100246,21.9318823 232.100246,24.6807497 C232.100246,27.4295756 234.152811,29.4911847 236.792473,29.4911847 C239.432136,29.4911847 241.582619,27.4295756 241.582619,24.7789176 C241.582619,22.0300502 239.52964,19.8702732 236.890392,19.8702732 Z M236.890392,19.8702732 C234.152811,19.8702732 232.100246,21.9318823 232.100246,24.6807497 C232.100246,27.4295756 234.152811,29.4911847 236.792473,29.4911847 C239.432136,29.4911847 241.582619,27.4295756 241.582619,24.7789176 C241.582619,22.0300502 239.52964,19.8702732 236.890392,19.8702732 Z" fill="#1F344A"></path>
		</g>
</svg>

<svg preserveAspectRatio="xMidYMid" viewBox="0 0 512 102" xmlns="http://www.w3.org/2000/svg">
  <defs>
    <linearGradient id="gridsome_svg__a" x1="20.938%" x2="67.331%" y1="135.775%" y2="141.765%">
      <stop offset="0%" stop-color="#1A7D75"/>
      <stop offset="100%" stop-color="#1A8864"/>
    </linearGradient>
    <linearGradient id="gridsome_svg__b" x1="5.879%" x2="-17.306%" y1="11.117%" y2="72.271%">
      <stop offset="1.293%" stop-color="#168A81"/>
      <stop offset="100%" stop-color="#31A97F"/>
    </linearGradient>
    <linearGradient id="gridsome_svg__c" x1="-144.301%" x2="-70.357%" y1="53.433%" y2="117.634%">
      <stop offset="0%" stop-color="#27A59B"/>
      <stop offset="100%" stop-color="#64D8A2"/>
    </linearGradient>
    <linearGradient id="gridsome_svg__d" x1="-143.419%" x2="-4.693%" y1="60.471%" y2="180.917%">
      <stop offset="0%" stop-color="#27A59B"/>
      <stop offset="100%" stop-color="#64D8A2"/>
    </linearGradient>
    <linearGradient id="gridsome_svg__e" x1="208.845%" x2="86.111%" y1="-141.921%" y2="-183.711%">
      <stop offset="0%" stop-color="#27A59B"/>
      <stop offset="100%" stop-color="#64D8A2"/>
    </linearGradient>
  </defs>
  <g fill-rule="evenodd">
    <path fill="url(#gridsome_svg__a)" d="M91.879 41.993c4.887-.235 9.214 3.557 9.636 8.449 1.828 23.665-19.44 50.13-49.96 50.978-4.892.136-8.967-3.73-9.102-8.634-.135-4.906 3.72-8.992 8.61-9.128 20.249-.562 33.075-18.05 32.39-32.365-.234-4.901 3.538-9.065 8.426-9.3Z"/>
    <path fill="url(#gridsome_svg__b)" d="M8.955 41.49c4.893 0 8.86 3.977 8.86 8.884 0 20.48 16.466 33.733 32.914 33.327 4.891-.12 8.954 3.758 9.075 8.663.12 4.906-3.748 8.98-8.64 9.101C25.445 102.099.008 81.508.008 50.374c0-4.907 4.055-8.885 8.948-8.885Z"/>
    <path fill="url(#gridsome_svg__c)" fill-rule="nonzero" d="M69.746 51.062c0-5.023 4.098-9.095 9.152-9.095h13.338c5.055 0 9.279 4.072 9.279 9.095 0 5.024-4.224 9.097-9.28 9.097H78.899c-5.054 0-9.152-4.073-9.152-9.097Z"/>
    <path fill="url(#gridsome_svg__d)" fill-rule="nonzero" d="M41.76 51.076c0-5.031 4.072-9.11 9.089-9.11s9.088 4.079 9.088 9.11c0 5.03-4.071 9.11-9.088 9.11-5.017 0-9.089-4.08-9.089-9.11Z"/>
    <path fill="url(#gridsome_svg__e)" d="M59.685 8.516c.204 4.902-3.595 9.042-8.484 9.245-21.105.88-33.99 17.467-33.362 33.217.195 4.902-3.53 9.036-8.42 9.232-4.89.195-9.189-3.762-9.384-8.664C-.987 25.879 20.385.506 50.465.008c4.89-.204 9.017 3.605 9.22 8.508Z"/>
    <path fill="#1F344A" d="M169.686 46.505h23.828l.05.702c.1 1.401.1 3.188.1 3.778v.006c0 8.883-1.998 15.14-6.907 21.378l-.002.001-.001.002c-6.396 8.03-15.02 12.263-25.13 12.263-19.027 0-32.92-14.61-32.92-34.528 0-20.206 13.79-34.82 32.92-34.82 10.106 0 18.829 4.229 25.13 12.164l.465.584-7.3 5.934-.48-.54c-2.54-2.843-3.659-3.957-5.332-5.077l-.013-.01-.013-.009c-3.482-2.551-7.918-3.977-12.457-3.977-13 0-23 10.972-23 25.653 0 14.49 10.004 25.555 22.804 25.555 6.997 0 14.287-3.716 18.148-9.295l.007-.01.007-.01c2.307-3.118 3.283-6.062 3.954-11.165h-13.858v-8.579Zm32.276-9.817h8.943v5.121c.822-1.406 1.68-2.353 2.882-3.29 2.402-1.888 5.702-2.911 9.07-2.911h2.516v9.171l-.85-.107c-.73-.091-1.467-.092-1.96-.092-3.756 0-7.04 1.74-9.147 4.87l-.003.002-.001.003c-1.838 2.676-2.507 5.157-2.507 10.273v23.728h-8.943V36.688Zm39.302 0v46.768h-8.943V36.688h8.943Zm44.634 5.588c-4.237-4.577-9.158-6.668-15.375-6.668-12.723 0-21.97 10.64-21.97 24.71 0 14.087 9.067 24.218 21.97 24.218 3.526 0 6.564-.684 9.31-2.192 2.2-1.208 4.182-2.928 6.065-5.191v6.303h8.942V16.464h-8.942v25.812Zm50.021 8.292h-8.978v-1.246c0-1.886-.755-3.384-2.072-4.427-1.335-1.057-3.305-1.69-5.774-1.69-2.372 0-4.217.608-5.453 1.6-1.22.98-1.905 2.38-1.905 4.124 0 .924.116 1.64.372 2.24.251.588.659 1.11 1.321 1.614 1.372 1.04 3.75 1.943 7.82 3.075 5.8 1.58 8.99 3.095 11.285 5.4 2.39 2.4 3.838 5.83 3.838 9.368 0 4.15-1.713 7.654-4.7 10.106-2.974 2.442-7.165 3.804-12.09 3.804-5.242 0-9.445-1.228-12.447-3.72-3.013-2.503-4.717-6.196-5.121-10.911l-.07-.82h8.843l.066.683c.23 2.399 1.112 4.16 2.528 5.332 1.425 1.18 3.482 1.839 6.201 1.839 2.418 0 4.34-.63 5.639-1.664 1.284-1.021 2.012-2.472 2.012-4.257 0-.9-.145-1.644-.447-2.287-.3-.641-.774-1.225-1.493-1.777-1.469-1.126-3.902-2.078-7.755-3.057l-.006-.002-.006-.001c-4.939-1.34-8.624-3.076-11.078-5.424-2.485-2.378-3.655-5.33-3.655-8.951 0-4.147 1.685-7.65 4.635-10.104 2.938-2.443 7.08-3.807 11.959-3.807 4.913 0 8.944 1.26 11.807 3.703 2.874 2.453 4.484 6.026 4.688 10.467l.036.79Zm60.44-13.88h8.943v4.702c1.362-1.703 2.825-3.012 4.464-3.952 2.215-1.269 4.698-1.83 7.588-1.83 3.187 0 5.863.687 8.025 2.156 1.8 1.224 3.194 2.958 4.228 5.184 1.522-2.326 3.257-4.078 5.34-5.287 2.456-1.422 5.335-2.053 8.8-2.053 5.34 0 9.514 1.725 12.045 5.11 1.132 1.501 1.867 2.95 2.306 4.957.436 1.975.581 4.475.581 8.065v29.716h-8.941V55.507c0-2.756-.05-4.395-.224-5.571-.17-1.133-.448-1.828-.946-2.689-1.2-2.063-3.838-3.453-7.166-3.453-3.09 0-5.402 1.034-6.953 2.938-1.573 1.927-2.457 4.85-2.457 8.775v27.95h-8.945V55.604c0-4.39-.394-6.487-1.374-8.277l-.004-.013-.008-.013c-1.108-2.226-3.53-3.508-6.655-3.508-3.079 0-5.47 1.1-7.104 3.065-1.65 1.985-2.6 4.935-2.6 8.746v27.851h-8.943V36.688Zm115.45 26.545H474.42c.183 1.473.427 2.619.784 3.63.42 1.188 1.013 2.224 1.909 3.405l.004.006.004.005c2.788 3.83 6.863 5.874 11.51 5.874 5.306 0 10.327-2.903 12.829-7.369l.32-.566 7.937 2.975-.366.747c-3.85 7.832-11.845 12.596-20.72 12.596-13.83 0-23.733-10.174-23.733-24.317 0-14.321 9.788-24.611 23.438-24.611 13.53 0 23.633 10.264 23.633 23.924v.009c0 .589 0 1.89-.1 3.004l-.061.688ZM231.343 24.68c0-3.162 2.388-5.566 5.547-5.566 3.091 0 5.45 2.533 5.45 5.664 0 3.084-2.507 5.468-5.548 5.468-3.071 0-5.449-2.415-5.449-5.566Zm50.677 23.608c-2.42-2.848-5.85-4.495-9.932-4.495-4.233 0-7.76 1.675-10.241 4.56-2.488 2.894-3.96 7.052-3.96 12.062 0 4.81 1.446 8.847 3.863 11.67 2.41 2.814 5.818 4.46 9.849 4.46 8.193 0 14.299-6.831 14.299-16.327 0-4.961-1.449-9.072-3.878-11.93Zm67.14-5.887c4.213-4.32 10.183-6.794 17.21-6.794 13.746 0 23.535 10.288 23.535 24.611 0 13.657-10.492 24.317-23.828 24.317-6.89 0-12.786-2.529-16.959-6.884-4.17-4.354-6.576-10.487-6.576-17.63 0-7.19 2.406-13.302 6.618-17.62Zm27.632 5.988c-2.498-2.786-6.075-4.4-10.422-4.4-4.45 0-8.102 1.618-10.647 4.405-2.55 2.794-4.043 6.822-4.043 11.726 0 4.853 1.491 8.858 4.03 11.64 2.535 2.776 6.164 4.392 10.562 4.392 8.412 0 14.494-6.561 14.494-16.032 0-4.907-1.47-8.937-3.974-11.731Zm97.774 7.834h27.895c-.316-2.91-.975-4.61-2.324-6.56-2.693-3.63-7.057-5.87-11.8-5.87-4.742 0-8.995 2.237-11.489 5.941-1.178 1.861-1.75 3.487-2.282 6.49ZM236.89 19.87c-2.737 0-4.79 2.062-4.79 4.81 0 2.75 2.053 4.811 4.692 4.811 2.64 0 4.79-2.061 4.79-4.712 0-2.749-2.052-4.909-4.692-4.909Zm0 0c-2.737 0-4.79 2.062-4.79 4.81 0 2.75 2.053 4.811 4.692 4.811 2.64 0 4.79-2.061 4.79-4.712 0-2.749-2.052-4.909-4.692-4.909Z"/>
  </g>
</svg>
